libs/icons/src/svg/url.svg

<svg width="16" height="16" viewBox="0 0 16 16" fill="none" xmlns="http://www.w3.org/2000/svg">
<g clip-path="url(#clip0_3_3747)">
<path d="M9.51838 2.75776L7.80474 4.4714C7.54439 4.73175 7.12228 4.73175 6.86193 4.4714C6.60158 4.21105 6.60158 3.78894 6.86193 3.52859L8.58432 1.8062C9.33285 1.07564 10.3374 0.666733 11.3833 0.666733C12.4293 0.666733 13.4338 1.07568 14.1823 1.80623L13.7167 2.28333L14.1938 1.81769C14.9243 2.56622 15.3333 3.57072 15.3333 4.61667C15.3333 5.66261 14.9243 6.66711 14.1938 7.41564L14.1881 7.42144L12.4714 9.13807C12.2111 9.39842 11.7889 9.39842 11.5286 9.13807C11.2682 8.87772 11.2682 8.45561 11.5286 8.19526L13.2422 6.48162C13.7281 5.98243 13.9999 5.31333 13.9999 4.61667C13.9999 3.92143 13.7292 3.25364 13.2452 2.75478C12.7464 2.27084 12.0786 2.00007 11.3833 2.00007C10.6867 2.00007 10.0176 2.27195 9.51838 2.75776Z" fill="#202327"/>
<path d="M4.47142 6.86193C4.73177 7.12228 4.73177 7.54439 4.47142 7.80474L2.75777 9.51839C2.27196 10.0176 2.00008 10.6867 2.00008 11.3833C2.00008 12.0786 2.27085 12.7464 2.7548 13.2452C3.25365 13.7292 3.92144 13.9999 4.61668 13.9999C5.31334 13.9999 5.98245 13.7281 6.48163 13.2422L8.19528 11.5286C8.45563 11.2683 8.87774 11.2683 9.13809 11.5286C9.39844 11.789 9.39844 12.2111 9.13809 12.4714L7.41569 14.1938C6.66716 14.9244 5.66263 15.3333 4.61668 15.3333C3.57073 15.3333 2.56623 14.9243 1.81771 14.1938L2.28335 13.7167L1.80625 14.1823C1.07569 13.4338 0.666748 12.4293 0.666748 11.3833C0.666748 10.3374 1.07569 9.33289 1.80625 8.58436L1.81191 8.57857L3.52861 6.86193C3.78896 6.60158 4.21107 6.60158 4.47142 6.86193Z" fill="#202327"/>
<path d="M11.1381 5.80474C11.3984 5.54439 11.3984 5.12228 11.1381 4.86193C10.8777 4.60158 10.4556 4.60158 10.1953 4.86193L4.86193 10.1953C4.60158 10.4556 4.60158 10.8777 4.86193 11.1381C5.12228 11.3984 5.54439 11.3984 5.80474 11.1381L11.1381 5.80474Z" fill="#202327"/>
</g>
<defs>
<clipPath id="clip0_3_3747">
<rect width="16" height="16" fill="white"/>
</clipPath>
</defs>
</svg>

<svg xmlns="http://www.w3.org/2000/svg" viewBox="0 0 16 16" class="sageicon"><path d="M9.518 2.758 7.805 4.47a.667.667 0 1 1-.943-.942l1.722-1.723a4.007 4.007 0 0 1 5.598 0l-.465.477.477-.465a4.008 4.008 0 0 1 0 5.598l-.006.005-1.717 1.717a.667.667 0 1 1-.942-.943l1.713-1.713a2.674 2.674 0 0 0 .003-3.727 2.674 2.674 0 0 0-3.727.003ZM4.471 6.862c.26.26.26.682 0 .943L2.758 9.518a2.674 2.674 0 0 0-.003 3.727 2.674 2.674 0 0 0 3.727-.003l1.713-1.713a.667.667 0 1 1 .943.942l-1.722 1.723a4.008 4.008 0 0 1-5.598 0l.465-.477-.477.465a4.007 4.007 0 0 1 0-5.598l.006-.005 1.717-1.717c.26-.26.682-.26.942 0Z"/><path d="M11.138 5.805a.667.667 0 0 0-.943-.943l-5.333 5.333a.667.667 0 1 0 .943.943l5.333-5.333Z"/></svg>
